src/img/svg/design-tech-logo.svg

<svg width="110" height="32" viewBox="0 0 110 32" fill="none" xmlns="http://www.w3.org/2000/svg">
<path fill-rule="evenodd" clip-rule="evenodd" d="M39.4147 14.7788C42.1921 14.7788 43.1176 12.9197 43.1176 10.3633C43.1176 5.4252 39.4723 5.83198 39.1836 5.83198H37.8525V14.7788H39.4147ZM39.5887 13.2101V7.45852C41.0351 7.45852 41.3826 9.25981 41.3826 10.3633C41.3826 11.4667 40.9769 13.268 39.5887 13.2101ZM48.325 5.83198V14.7788H51.912V13.1523H50.1182V11.1184H51.6804V9.43339H50.1182V7.51638H51.912V5.83198H48.325ZM60.8793 6.18032C60.4166 5.88985 59.8963 5.71509 59.3748 5.71509C57.8132 5.71509 57.0036 6.93543 57.0036 8.32935C57.0036 9.666 57.6398 10.3048 58.6816 11.0021C59.1443 11.3504 59.7229 11.583 59.7229 12.2803C59.7229 12.8612 59.2602 13.268 58.6816 13.268C58.1601 13.268 57.7562 13.0938 57.3505 12.8034V14.4883C57.7556 14.7788 58.3918 14.8945 58.8551 14.8945C60.533 14.8945 61.4009 13.7326 61.4009 12.164C61.4009 9.72386 58.7392 9.66601 58.7392 8.15519C58.7392 7.6321 59.0873 7.28376 59.6076 7.28376C60.128 7.28376 60.533 7.57424 60.8799 7.86471V6.18032H60.8793ZM66.7229 14.7788H68.4597V5.83198H66.7229V14.7788ZM76.8479 9.84017V11.4667H77.9468C77.9468 12.1061 77.8321 13.268 76.9061 13.268C75.6326 13.268 75.575 11.2347 75.575 10.3048C75.575 9.49184 75.6896 7.28377 76.9061 7.34222C77.5423 7.34222 77.7157 8.03947 77.7733 8.50411L79.5095 7.80685C79.1044 6.5871 78.236 5.71509 76.8479 5.71509C74.3609 5.71509 73.7236 8.32935 73.7236 10.3633C73.7236 12.3387 74.4755 14.8945 76.8479 14.8945C79.2779 14.8945 79.7406 12.3966 79.7406 10.5374V9.84017H76.8479ZM84.948 5.83198V14.7788H86.683V10.3048L86.5684 9.43339L86.626 9.37553L88.7667 14.7788H90.4447V5.83198H88.7097V9.89862C88.7097 10.3054 88.7097 10.7706 88.8243 11.2353L86.6266 5.83258H84.948V5.83198ZM95.9414 5.83198V14.7788H99.5272V13.1523H97.6764V11.1184H99.2967V9.43339H97.6764V7.51638H99.4702V5.83198H95.9414ZM106.586 14.7788V10.6537H106.644L108.148 14.7788H110L108.496 10.7116C109.363 10.247 109.71 9.37553 109.71 8.38721C109.71 6.00556 107.743 5.83139 106.586 5.83139H104.851V14.7782H106.586V14.7788ZM106.586 7.34222H106.818C107.744 7.28377 108.033 7.80685 108.033 8.44625C108.033 9.14291 107.685 9.72445 106.933 9.72445L106.586 9.66659V7.34222ZM37.9684 20.3563V21.0535H38.952V26.5725H39.7622V21.0535H40.6876V20.3563H37.9684ZM45.3165 20.3563V26.5725H47.573V25.8747H46.1267V23.7256H47.399V23.029H46.1267V21.0535H47.573V20.3563H45.3165ZM54.7471 20.4726C54.5154 20.2984 54.342 20.2984 54.0527 20.2984C52.3747 20.2984 52.2013 22.3311 52.2013 23.5515C52.2013 24.8881 52.433 26.6888 54.1109 26.6888C54.3426 26.6888 54.5737 26.6298 54.7477 26.5147V25.7596C54.6319 25.8747 54.4584 25.8747 54.285 25.8747C53.1279 25.8747 53.0697 24.3066 53.0697 23.4936C53.0697 22.7385 53.0697 21.0535 54.2268 21.0535C54.4002 21.0535 54.5737 21.1114 54.7477 21.2277V20.4726H54.7471ZM59.5494 20.3563V26.5725H60.4166V23.4936H61.6313V26.5725H62.4421V20.3563H61.6313V22.7964H60.4166V20.3563H59.5494ZM68.2851 21.8092L69.732 26.5725H70.484V20.3563H69.6744V22.5643L69.9055 25.0617H69.8478L68.4009 20.3563H67.6489V26.5725H68.4597V24.3066L68.3433 22.2148L68.2851 21.8092ZM77.1372 20.2984C75.5168 20.2984 75.5168 22.3311 75.5168 23.4936C75.5168 24.5971 75.5168 26.6888 77.1372 26.6888C78.7575 26.6888 78.7575 24.5971 78.7575 23.4936C78.7575 22.3311 78.7575 20.2984 77.1372 20.2984ZM77.1372 21.0535C77.7733 21.0535 77.8891 22.157 77.8891 23.4936C77.8891 24.7712 77.7733 25.8747 77.1372 25.8747C76.501 25.8747 76.3852 24.7712 76.3852 23.4936C76.3852 22.1576 76.501 21.0535 77.1372 21.0535ZM83.7333 20.3563V26.5725H85.9898V25.8747H84.6017V20.3563H83.7333ZM92.1221 20.2984C90.5029 20.2984 90.5029 22.3311 90.5029 23.4936C90.5029 24.5971 90.5029 26.6888 92.1221 26.6888C93.6848 26.6888 93.7425 24.5971 93.7425 23.4936C93.7425 22.3311 93.6848 20.2984 92.1221 20.2984ZM92.1221 21.0535C92.7594 21.0535 92.8741 22.157 92.8741 23.4936C92.8741 24.7712 92.7594 25.8747 92.1221 25.8747C91.4859 25.8747 91.3701 24.7712 91.3701 23.4936C91.3695 22.1576 91.4859 21.0535 92.1221 21.0535ZM100.222 23.3195V24.0161H100.858V24.3645C100.858 25.8174 100.511 25.8753 100.165 25.8753C99.8165 25.8753 99.4696 25.6432 99.4696 23.4942C99.4696 21.9834 99.5272 21.0541 100.165 21.0541C100.685 21.0541 100.801 21.4603 100.858 21.8671L101.669 21.5187C101.437 20.7046 101.032 20.299 100.165 20.299C98.7176 20.299 98.6018 21.7508 98.6018 23.4942C98.6018 25.2365 98.7752 26.6894 100.222 26.6894C101.9 26.6894 101.727 24.5977 101.727 23.3779V23.32H100.222V23.3195ZM106.181 20.3563L107.454 23.8998V26.5725H108.264V23.8998L109.422 20.3563H108.553L107.975 22.448L107.86 23.261L107.108 20.3563H106.181Z" fill="#333333"/>
<path fill-rule="evenodd" clip-rule="evenodd" d="M7.53582 25.8747C7.30417 25.7006 5.62618 23.3195 5.2793 21.3429C18.5862 33.8344 34.2655 22.97 29.6948 13.6164C29.6366 13.4422 29.5214 13.2681 29.3473 13.0354C29.3473 12.6871 29.2321 11.6415 29.1739 11.2926L29.579 11.6988C35.8271 19.1354 30.5044 27.5591 22.5207 29.7672C15.6935 31.3359 10.9494 28.8964 7.53582 25.8747Z" fill="#828282"/>
<path fill-rule="evenodd" clip-rule="evenodd" d="M6.78346 11.8157C5.45294 13.3265 5.10547 15.1856 5.10547 15.1856C6.26254 21.112 11.4123 22.3896 11.4123 22.3896C5.91565 18.2067 6.78346 11.8157 6.78346 11.8157Z" fill="#828282"/>
<path fill-rule="evenodd" clip-rule="evenodd" d="M5.62663 5.48315C2.67574 7.28445 1.63449 10.3049 2.0972 12.2804C1.28761 13.7912 1.11357 14.198 0.47742 16.4054C-1.43163 9.54979 3.48593 5.83208 5.62663 5.48315Z" fill="#828282"/>
<path fill-rule="evenodd" clip-rule="evenodd" d="M27.0336 22.389C25.9923 23.3195 25.3556 23.842 24.0251 24.7713C32.9348 7.45856 14.999 -3.2317 8.11416 6.35452C7.88251 6.47083 5.97346 7.40011 5.45312 7.80689C10.2549 -5.43977 27.9014 -0.269103 29.5794 11.6994C29.9263 15.0693 29.7528 18.0904 27.0336 22.389Z" fill="#C4C4C4"/>
<path fill-rule="evenodd" clip-rule="evenodd" d="M19.6278 5.30896C20.4956 5.65729 21.19 6.29668 21.8843 6.99394C9.27176 4.14706 3.83269 11.6415 3.77508 17.7421C3.71746 24.7713 9.90792 32.3242 18.4125 30.1752C18.4701 30.1752 18.8752 30.0589 19.1069 29.942C20.0323 29.8257 20.7849 29.7678 21.421 29.6515C21.3052 29.7105 21.1894 29.8257 21.1894 29.8257C10.1972 36.3324 -0.448709 27.0951 0.0145902 17.1611C1.05584 8.73678 9.387 2.0553 19.6278 5.30896Z" fill="#C4C4C4"/>
<path fill-rule="evenodd" clip-rule="evenodd" d="M7.53582 25.8746C7.30417 25.7005 5.62618 23.3194 5.2793 21.3428C11.1229 26.8039 17.4291 27.7922 22.2315 26.3977C22.5789 27.6175 22.9258 28.4304 22.5207 29.7671C15.6935 31.3358 10.9494 28.8963 7.53582 25.8746Z" fill="#828282"/>
</svg>

<svg width="110" height="32" fill="none" xmlns="http://www.w3.org/2000/svg"><path fill-rule="evenodd" clip-rule="evenodd" d="M39.415 14.779c2.777 0 3.703-1.86 3.703-4.416 0-4.938-3.646-4.531-3.934-4.531h-1.331v8.947h1.562zm.174-1.569V7.46c1.446 0 1.794 1.8 1.794 2.904 0 1.104-.406 2.905-1.794 2.847zm8.736-7.378v8.947h3.587v-1.627h-1.794v-2.034h1.562V9.433h-1.562V7.516h1.794V5.832h-3.587zm12.554.348c-.462-.29-.983-.465-1.504-.465-1.562 0-2.371 1.22-2.371 2.614 0 1.337.636 1.976 1.678 2.673.462.348 1.04.581 1.04 1.278 0 .581-.462.988-1.04.988-.522 0-.926-.174-1.332-.465v1.685c.406.29 1.042.407 1.505.407 1.678 0 2.546-1.162 2.546-2.731 0-2.44-2.662-2.498-2.662-4.009 0-.523.348-.871.869-.871.52 0 .925.29 1.272.58V6.18zm5.844 8.599h1.737V5.832h-1.737v8.947zM76.848 9.84v1.627h1.099c0 .64-.115 1.801-1.04 1.801-1.274 0-1.332-2.033-1.332-2.963 0-.813.115-3.021 1.331-2.963.636 0 .81.697.867 1.162l1.737-.697c-.406-1.22-1.274-2.092-2.662-2.092-2.487 0-3.124 2.614-3.124 4.648 0 1.976.751 4.532 3.124 4.532 2.43 0 2.893-2.498 2.893-4.358V9.84h-2.893zm8.1-4.008v8.947h1.735v-4.474l-.115-.872.058-.057 2.14 5.403h1.679V5.832H88.71v4.067c0 .406 0 .872.114 1.336l-2.197-5.402h-1.679v-.001zm10.993 0v8.947h3.586v-1.627h-1.85v-2.034h1.62V9.433h-1.62V7.516h1.793V5.832h-3.529zm10.645 8.947v-4.125h.058l1.504 4.125H110l-1.504-4.067c.867-.465 1.214-1.336 1.214-2.325 0-2.381-1.967-2.556-3.124-2.556h-1.735v8.947h1.735zm0-7.437h.232c.926-.058 1.215.465 1.215 1.104 0 .697-.348 1.278-1.1 1.278l-.347-.057V7.342zM37.968 20.356v.697h.984v5.52h.81v-5.52h.926v-.697h-2.72zm7.348 0v6.216h2.257v-.697h-1.446v-2.15h1.272v-.696h-1.272v-1.976h1.446v-.697h-2.257zm9.431.117c-.232-.175-.405-.175-.694-.175-1.678 0-1.852 2.033-1.852 3.254 0 1.336.232 3.137 1.91 3.137.232 0 .463-.06.637-.174v-.755c-.116.115-.29.115-.463.115-1.157 0-1.215-1.568-1.215-2.381 0-.756 0-2.44 1.157-2.44.173 0 .347.057.52.174v-.755zm4.802-.117v6.216h.868v-3.078h1.214v3.079h.811v-6.217h-.81v2.44h-1.215v-2.44h-.868zm8.736 1.453l1.447 4.764h.752v-6.217h-.81v2.208l.231 2.498h-.057L68.4 20.356h-.752v6.216h.81v-2.265l-.116-2.092-.058-.406zm8.852-1.51c-1.62 0-1.62 2.032-1.62 3.195 0 1.103 0 3.195 1.62 3.195s1.62-2.092 1.62-3.195c0-1.163 0-3.196-1.62-3.196zm0 .755c.636 0 .752 1.103.752 2.44 0 1.277-.116 2.38-.752 2.38s-.752-1.103-.752-2.38c0-1.336.116-2.44.752-2.44zm6.596-.698v6.216h2.257v-.697h-1.388v-5.519h-.869zm8.39-.058c-1.62 0-1.62 2.033-1.62 3.196 0 1.103 0 3.195 1.62 3.195 1.562 0 1.62-2.092 1.62-3.195 0-1.163-.058-3.196-1.62-3.196zm0 .756c.636 0 .751 1.103.751 2.44 0 1.277-.115 2.38-.752 2.38-.636 0-.752-1.103-.752-2.38 0-1.336.116-2.44.752-2.44zm8.099 2.266v.696h.636v.349c0 1.452-.347 1.51-.693 1.51-.349 0-.695-.232-.695-2.38 0-1.512.057-2.44.695-2.44.52 0 .636.405.693.812l.811-.348c-.232-.814-.637-1.22-1.504-1.22-1.447 0-1.563 1.452-1.563 3.195 0 1.742.173 3.195 1.62 3.195 1.678 0 1.505-2.091 1.505-3.311v-.058h-1.505zm5.959-2.964l1.273 3.544v2.673h.81V23.9l1.158-3.544h-.869l-.578 2.092-.115.813-.752-2.905h-.927z" fill="#333"/><path fill-rule="evenodd" clip-rule="evenodd" d="M7.536 25.875c-.232-.174-1.91-2.555-2.257-4.532 13.307 12.491 28.987 1.627 24.416-7.727-.058-.174-.174-.348-.348-.58 0-.349-.115-1.394-.173-1.743l.405.406c6.248 7.436.925 15.86-7.058 18.068-6.828 1.569-11.572-.87-14.985-3.892z" fill="#828282"/><path fill-rule="evenodd" clip-rule="evenodd" d="M6.783 11.816c-1.33 1.51-1.678 3.37-1.678 3.37 1.158 5.926 6.307 7.204 6.307 7.204-5.496-4.183-4.629-10.574-4.629-10.574zM5.627 5.483c-2.951 1.801-3.993 4.822-3.53 6.797-.81 1.511-.983 1.918-1.62 4.125C-1.432 9.55 3.486 5.832 5.627 5.483z" fill="#828282"/><path fill-rule="evenodd" clip-rule="evenodd" d="M27.034 22.389a27.18 27.18 0 0 1-3.009 2.382C32.935 7.46 15-3.232 8.115 6.355 7.882 6.47 5.972 7.4 5.452 7.807 10.255-5.44 27.901-.27 29.58 11.699c.347 3.37.174 6.391-2.545 10.69z" fill="#C4C4C4"/><path fill-rule="evenodd" clip-rule="evenodd" d="M19.628 5.309c.868.348 1.562.988 2.256 1.685C9.272 4.147 3.833 11.642 3.775 17.742c-.058 7.03 6.133 14.582 14.638 12.433.057 0 .462-.116.694-.233.925-.116 1.678-.174 2.314-.29a1.115 1.115 0 0 0-.232.174C10.197 36.332-.449 27.096.015 17.16 1.055 8.737 9.387 2.055 19.628 5.31z" fill="#C4C4C4"/><path fill-rule="evenodd" clip-rule="evenodd" d="M7.536 25.875c-.232-.174-1.91-2.556-2.257-4.532 5.844 5.46 12.15 6.45 16.953 5.055.347 1.22.694 2.032.289 3.37-6.828 1.568-11.572-.872-14.985-3.893z" fill="#828282"/></svg>
